lib/brands/icons/viber.svg

<svg xmlns="http://www.w3.org/2000/svg" fill="none" aria-hidden="true" viewBox="0 0 48 48"><g id="viber-Icon"><g id="Group 603"><path id="border" fill="#BFC8D0" fill-rule="evenodd" d="M38 23.3785C38 14.207 34.7692 10 24 10C13.2308 10 10 14.207 10 23.3785C10 29.9055 11.6363 33.9182 16.4615 35.6895V38.7774C16.4615 39.9141 17.8877 40.4332 18.6264 39.5656L21.1164 36.6411C22.0113 36.7185 22.9713 36.7569 24 36.7569C34.7692 36.7569 38 32.5499 38 23.3785ZM21.7113 34.5316C22.4251 34.5882 23.1872 34.6164 24 34.6164C33.1124 34.6164 35.8462 31.0825 35.8462 23.3785C35.8462 15.6744 33.1124 12.1406 24 12.1406C14.8876 12.1406 12.1538 15.6744 12.1538 23.3785C12.1538 28.8239 13.5197 32.1859 17.5385 33.6891V38.2639C17.5385 38.6627 18.0389 38.8449 18.2981 38.5404L21.7113 34.5316Z" clip-rule="evenodd"/><path id="bg" fill="#9179EE" d="M24 33.8548C23.1766 33.8548 22.4047 33.8262 21.6815 33.7685L18.224 37.845C17.9614 38.1546 17.4545 37.9693 17.4545 37.5638V32.9119C13.3835 31.3834 12 27.9647 12 22.4274C12 14.5935 14.7692 11 24 11C33.2308 11 36 14.5935 36 22.4274C36 30.2613 33.2308 33.8548 24 33.8548Z"/><path id="border_2" fill="white" fill-rule="evenodd" d="M38 22.3785C38 13.207 34.7692 9 24 9C13.2308 9 10 13.207 10 22.3785C10 28.9055 11.6363 32.9182 16.4615 34.6895V37.7774C16.4615 38.9141 17.8877 39.4332 18.6264 38.5656L21.1164 35.6411C22.0113 35.7185 22.9713 35.7569 24 35.7569C34.7692 35.7569 38 31.5499 38 22.3785ZM21.7113 33.5316C22.4251 33.5882 23.1872 33.6164 24 33.6164C33.1124 33.6164 35.8462 30.0825 35.8462 22.3785C35.8462 14.6744 33.1124 11.1406 24 11.1406C14.8876 11.1406 12.1538 14.6744 12.1538 22.3785C12.1538 27.8239 13.5197 31.1859 17.5385 32.6891V37.2639C17.5385 37.6627 18.0389 37.8449 18.2981 37.5404L21.7113 33.5316Z" clip-rule="evenodd"/><path id="phone" fill="white" stroke="white" stroke-linecap="round" d="M19.5432 20.1345L19.5026 20.157L19.4668 20.1866C19.1902 20.4154 18.7756 21.0434 19.1388 21.8197C19.4414 22.4665 20.1157 23.7874 21.3005 24.7826C22.4592 25.756 23.6965 26.2795 24.5092 26.4509L24.5603 26.4617H24.6069C24.6091 26.4619 24.614 26.4624 24.6219 26.4636C24.6412 26.4663 24.6645 26.4703 24.7012 26.4767L24.7874 25.9842L24.7012 26.4767C24.7075 26.4778 24.714 26.479 24.7208 26.4802C24.9709 26.5244 25.5704 26.6304 26.0729 26.1297C26.3954 25.8083 26.6898 25.4732 26.8165 25.3225C26.9055 25.2413 27.1956 25.0731 27.5626 25.1972C28.2576 25.4321 29.0839 25.9621 29.4833 26.2308C29.7925 26.439 30.4924 26.9404 30.8079 27.1682L30.8082 27.1684C30.8344 27.1873 30.8959 27.2493 30.9291 27.3354C30.9557 27.4042 30.97 27.4988 30.9061 27.6357C30.7875 27.8895 30.4266 28.374 29.9378 28.7978C29.4401 29.2294 28.9222 29.5 28.5072 29.5C28.5087 29.5 28.5072 29.4998 28.5025 29.4992C28.484 29.4967 28.4153 29.4874 28.2792 29.4568C28.1262 29.4225 27.9195 29.3686 27.6669 29.2926C27.1622 29.1407 26.485 28.904 25.7029 28.5675C24.1375 27.8941 22.1668 26.8277 20.3218 25.2572C19.1613 24.2694 18.0664 22.9036 17.2138 21.6251C16.3541 20.3358 15.779 19.1932 15.6224 18.6655L15.6115 18.6285L15.595 18.5937C15.556 18.5114 15.5011 18.3355 15.5 18.136C15.499 17.9433 15.5472 17.7592 15.6746 17.6066C16.0947 17.1032 16.5394 16.6086 17.5205 16.1339C17.6119 16.0897 17.755 16.0508 17.8958 16.0485C18.04 16.0462 18.1152 16.082 18.1452 16.1084C18.5206 16.4375 19.1025 17.0186 19.4945 17.5151C19.6971 17.7716 19.9418 18.0975 20.1458 18.3806C20.2478 18.5222 20.3377 18.6506 20.4062 18.7527C20.4405 18.8039 20.4679 18.8462 20.4881 18.8788C20.5019 18.9012 20.5093 18.9143 20.5124 18.9199C20.5141 18.9256 20.5218 18.9498 20.5286 18.9939C20.5371 19.0494 20.5411 19.1177 20.5354 19.1891C20.5235 19.3351 20.4755 19.4524 20.3892 19.5315C20.0962 19.7998 19.699 20.0482 19.5432 20.1345ZM24.2775 14.517C24.2772 14.5167 24.2769 14.5164 24.2766 14.5161C24.2769 14.5159 24.2772 14.5156 24.2775 14.5153C24.2847 14.5085 24.2994 14.5 24.3226 14.5C28.3145 14.5 31.4984 17.5378 31.5 21.223C31.4994 21.2239 31.4983 21.2251 31.4967 21.2267C31.4895 21.2334 31.4747 21.2419 31.4516 21.2419C31.4285 21.2419 31.4137 21.2334 31.4065 21.2267C31.4049 21.2251 31.4039 21.2239 31.4032 21.223C31.4016 17.4995 28.2032 14.5323 24.3226 14.5323C24.2994 14.5323 24.2847 14.5237 24.2775 14.517ZM24.2775 18.646C24.2772 18.6457 24.2769 18.6454 24.2766 18.6452C24.2769 18.6449 24.2772 18.6446 24.2775 18.6443C24.2847 18.6376 24.2994 18.629 24.3226 18.629C25.8916 18.629 27.1113 19.8182 27.1129 21.223C27.1123 21.2239 27.1112 21.2251 27.1096 21.2267C27.1024 21.2334 27.0877 21.2419 27.0645 21.2419C27.0414 21.2419 27.0266 21.2334 27.0194 21.2267C27.0178 21.2251 27.0168 21.2239 27.0161 21.223C27.0145 19.7799 25.7803 18.6613 24.3226 18.6613C24.2994 18.6613 24.2847 18.6528 24.2775 18.646ZM24.2775 16.5815C24.2772 16.5812 24.2769 16.5809 24.2766 16.5806C24.2769 16.5804 24.2772 16.5801 24.2775 16.5798C24.2847 16.573 24.2994 16.5645 24.3226 16.5645C27.1031 16.5645 29.3048 18.678 29.3065 21.223C29.3058 21.2239 29.3048 21.2251 29.3032 21.2267C29.296 21.2334 29.2812 21.2419 29.2581 21.2419C29.2349 21.2419 29.2201 21.2334 29.213 21.2267C29.2114 21.2251 29.2103 21.2239 29.2097 21.223C29.2081 18.6397 26.9917 16.5968 24.3226 16.5968C24.2994 16.5968 24.2847 16.5883 24.2775 16.5815Z"/></g></g></svg>

<svg xmlns="http://www.w3.org/2000/svg" fill="none" aria-hidden="true" viewBox="0 0 48 48"><path fill="#BFC8D0" fill-rule="evenodd" d="M38 23.378C38 14.207 34.77 10 24 10s-14 4.207-14 13.378c0 6.527 1.636 10.54 6.462 12.312v3.087c0 1.137 1.426 1.656 2.164.789l2.49-2.925c.895.078 1.855.116 2.884.116 10.77 0 14-4.207 14-13.378ZM21.711 34.532c.714.056 1.476.084 2.289.084 9.112 0 11.846-3.534 11.846-11.238S33.112 12.141 24 12.141s-11.846 3.533-11.846 11.237c0 5.446 1.366 8.808 5.384 10.311v4.575c0 .399.5.58.76.276l3.413-4.008Z" clip-rule="evenodd"/><path fill="#9179EE" d="M24 33.855a29.59 29.59 0 0 1-2.319-.086l-3.457 4.076a.437.437 0 0 1-.77-.281v-4.652C13.384 31.383 12 27.965 12 22.427 12 14.594 14.77 11 24 11s12 3.594 12 11.427c0 7.834-2.77 11.428-12 11.428Z"/><path fill="#fff" fill-rule="evenodd" d="M38 22.378C38 13.207 34.77 9 24 9s-14 4.207-14 13.378c0 6.527 1.636 10.54 6.462 12.312v3.087c0 1.137 1.426 1.656 2.164.789l2.49-2.925c.895.078 1.855.116 2.884.116 10.77 0 14-4.207 14-13.378ZM21.711 33.532c.714.056 1.476.084 2.289.084 9.112 0 11.846-3.534 11.846-11.238S33.112 11.141 24 11.141s-11.846 3.533-11.846 11.237c0 5.446 1.366 8.808 5.384 10.311v4.575c0 .399.5.58.76.276l3.413-4.008Z" clip-rule="evenodd"/><path fill="#fff" stroke="#fff" stroke-linecap="round" d="m19.543 20.134-.04.023-.036.03a1.362 1.362 0 0 0-.328 1.633c.302.646.977 1.967 2.162 2.963 1.158.973 2.396 1.496 3.208 1.668l.051.01h.047l.015.003c.02.002.043.006.08.013l.085-.493-.086.493.02.003c.25.044.85.15 1.352-.35.322-.322.617-.657.744-.807a.776.776 0 0 1 .746-.126c.695.235 1.52.765 1.92 1.034.31.208 1.01.71 1.325.937h0c.026.02.088.081.121.167.027.07.041.164-.023.3-.118.255-.48.739-.968 1.163-.498.431-1.016.702-1.43.702h-.005a2.557 2.557 0 0 1-.224-.043 9.107 9.107 0 0 1-.612-.164 18.71 18.71 0 0 1-1.964-.726c-1.566-.673-3.536-1.74-5.381-3.31-1.16-.988-2.256-2.353-3.108-3.632-.86-1.29-1.435-2.432-1.592-2.96l-.01-.037-.017-.034a1.172 1.172 0 0 1-.095-.458.795.795 0 0 1 .175-.53c.42-.503.864-.997 1.845-1.472a.957.957 0 0 1 .376-.085c.144-.003.22.033.25.06.375.328.956.91 1.348 1.406a26.288 26.288 0 0 1 .912 1.238 4.39 4.39 0 0 1 .106.167c.002.006.01.03.017.074a.862.862 0 0 1 .006.195.504.504 0 0 1-.146.343c-.293.268-.69.516-.846.602Zm4.735-5.617h-.001v-.002a.065.065 0 0 1 .046-.015c3.991 0 7.175 3.038 7.177 6.723l-.003.004a.066.066 0 0 1-.045.015.066.066 0 0 1-.046-.015.039.039 0 0 1-.003-.004c-.001-3.723-3.2-6.69-7.08-6.69a.065.065 0 0 1-.046-.016Zm0 4.129h-.001v-.002a.065.065 0 0 1 .046-.015c1.569 0 2.788 1.19 2.79 2.594l-.003.004a.065.065 0 0 1-.046.015.066.066 0 0 1-.045-.015.039.039 0 0 1-.003-.004c-.001-1.443-1.236-2.562-2.693-2.562a.065.065 0 0 1-.046-.015Zm0-2.065h-.001v-.001a.065.065 0 0 1 .046-.015c2.78 0 4.982 2.113 4.983 4.658l-.003.004a.066.066 0 0 1-.045.015.065.065 0 0 1-.045-.015.028.028 0 0 1-.003-.004c-.002-2.583-2.218-4.626-4.887-4.626a.065.065 0 0 1-.046-.016Z"/></svg>
